X: 1135
T: Wild Colt, The
R:slip jig
B:O'Neill's 1135
Z:Transcribed by Michael Hogan
M:9/8
L:1/8
K:G
c | BAG FDD DFG | ABc BAG A2c | BAG FDD DFG | (A/B/c)A BGG G2:|
|:(G/A/)| Bcd efg fdc| BBB ABG A2 (d/c/)| BAG FDD DFG|(A/B/c)A BGG G2:||
